X: 14
T: Lilli Burlero
C: Henry Purcell 1690
B: NEFR #14
B: Barnes p.67
Z: 1997 by John Chambers <jc:trillian.mit.edu>
B: Playford Ball
M: 6/8
L: 1/8
K: A
|:\
"A"ABA c2c | "Bm"BcB "E7"d3 | "A"ceA "D"d2c | "E7"BAG "A"A2E |\
"A"ABA c2c | "Bm"BcB "E7"d3 | "A"ceA "D"d2c | "E7"BAG "A"A3 :|
|:\
"A"a2e f2e | "(G)"ef=g "D"f2e | "A"ef^g "D"agf | "A"edc "E"B2e |\
"D"fed "A"cde | "A"edc "E7"Bcd | "A"e2A "D"d2c | "E7"BAG "A"A3 :|
